packages/react-icons/icons/properties.svg

<svg width="24" height="24" viewBox="0 0 24 24" xmlns="http://www.w3.org/2000/svg"><path fill-rule="evenodd" clip-rule="evenodd" d="M5.8 9.50349V6.13691H9.16658V9.50349H5.8ZM4 5.33691C4 4.78463 4.44772 4.33691 5 4.33691H9.96658C10.5189 4.33691 10.9666 4.78463 10.9666 5.33691V10.3035C10.9666 10.8558 10.5189 11.3035 9.96658 11.3035H5C4.44771 11.3035 4 10.8558 4 10.3035V5.33691ZM5.8 17.8629V14.4963H9.16658V17.8629H5.8ZM4 13.6963C4 13.144 4.44772 12.6963 5 12.6963H9.96658C10.5189 12.6963 10.9666 13.144 10.9666 13.6963V18.6629C10.9666 19.2152 10.5189 19.6629 9.96658 19.6629H5C4.44771 19.6629 4 19.2152 4 18.6629V13.6963ZM12.3599 8.09902C12.3599 7.60197 12.7628 7.19902 13.2599 7.19902H19.1C19.597 7.19902 20 7.60197 20 8.09902C20 8.59608 19.597 8.99902 19.1 8.99902H13.2599C12.7628 8.99902 12.3599 8.59608 12.3599 8.09902ZM13.2599 15.5584C12.7628 15.5584 12.3599 15.9613 12.3599 16.4584C12.3599 16.9555 12.7628 17.3584 13.2599 17.3584H19.1C19.597 17.3584 20 16.9555 20 16.4584C20 15.9613 19.597 15.5584 19.1 15.5584H13.2599Z"/></svg>

<svg xmlns="http://www.w3.org/2000/svg" width="24" height="24"><path fill-rule="evenodd" d="M5.8 9.503V6.137h3.367v3.366H5.8ZM4 5.337a1 1 0 0 1 1-1h4.967a1 1 0 0 1 1 1v4.966a1 1 0 0 1-1 1H5a1 1 0 0 1-1-1V5.337Zm1.8 12.526v-3.367h3.367v3.367H5.8ZM4 13.696a1 1 0 0 1 1-1h4.967a1 1 0 0 1 1 1v4.967a1 1 0 0 1-1 1H5a1 1 0 0 1-1-1v-4.967ZM12.36 8.1a.9.9 0 0 1 .9-.9h5.84a.9.9 0 0 1 0 1.8h-5.84a.9.9 0 0 1-.9-.9Zm.9 7.46a.9.9 0 1 0 0 1.8h5.84a.9.9 0 0 0 0-1.8h-5.84Z" clip-rule="evenodd"/></svg>
